X:1
T:Title
%%score { ( 1 3 4 ) | ( 2 5 ) }
L:1/8
Q:1/4=100
M:4/4
K:Bb
V:1 treble nm="Grand Piano"
V:3 treble 
V:4 treble 
V:2 bass 
V:5 bass 
V:1
 [DB] [DB]2 [Ec] [Fd][FB]GF | B2 c2 [DB]4 | [DB] [DB]2 [Ec] [Fd][DB][EG][FB] | %3
 [=Ec] [Ec]2 [Ed] [Fc]4 | [DB] [DB]2 [Ec] [Fd][FB]GF | B2 c2 [DB]2 FG | B B2 c [Fd] [Fd]2 B | %7
 d2 c2 [DB]4 | z .d3[K:bass][K:treble] z4 | [B,DB]2 [B,DB]2 [DB]4 | z .d3[K:bass][K:treble] z4 | %11
 [=Ec] [CGc]2 [Ed] [Fc]4 | z .d3[K:bass][K:treble] z4 | z4 B4[K:bass] | B B2 c [Fd] [Fd]2 B | %15
[M:8/4] d2 c2 [DB]4 z8 |] %16
V:2
 [B,,F,] [B,,F,]2 [B,,F,] [B,,B,][D,B,][E,B,E][F,B,D] | [G,B,D]2 [F,A,E]2 [B,,B,]4 | %2
 [B,,F,] [B,,F,]2 [B,,F,] [B,,B,][B,,B,][E,B,][D,B,] | [C,G,] [C,G,]2 [C,B,] [F,A,]4 | %4
 [B,,F,] [B,,F,]2 [B,,F,] [B,,B,][D,B,][B,E][F,B,D] | %5
 [G,B,D]2 [F,A,E]2 [B,,B,]2[K:treble] [B,D][B,D] | %6
 [G,B,D] [G,B,D]2 [G,B,G][K:bass] [D,B,] [D,B,]2 [G,B,D] | [F,B,F]2 [F,,F,A,E]2 [B,,B,]4 | %8
 B,[K:treble] [B,F]2[K:bass] [A,=E] B,B, z B, | z4 B,4 | .B,2 z2 z4 | z4 A,2 A,2 | %12
 B,,-[B,,B,-F-][B,F][B,=E] B,,-[B,,B,] z B, | B,,C,D,F,[K:treble] [B,D]4 | %14
 [G,B,D] [G,B,D]2 [G,B,G][K:bass] [D,B,] [D,B,]2 [G,B,D] | %15
[M:8/4] [F,B,F]2 [F,,F,A,E]2 [B,,B,]4 z8 |] %16
V:3
 x8 | x8 | x8 | x8 | x8 | x8 | x8 | x8 | .[Fd]2[K:bass] z[K:treble] _d [F=d][FB][B,EG][DF] | x8 | %10
 .[Fd]2[K:bass] z[K:treble] _d [F=d][B,FB][EG][DB] | x8 | %12
 .[Fd]2[K:bass] z[K:treble] _d [F=d][FB][B,EG][DF] | [B,DB]2 [B,DB]2 z[K:bass] F,D,F, | x8 | %15
[M:8/4] x16 |] %16
V:4
 x8 | x8 | x8 | x8 | x8 | x8 | x8 | x8 | z2[K:bass] F,,2[K:treble] z4 | x8 | %10
 z2[K:bass] F,,2[K:treble] z4 | x8 | z2[K:bass] F,,2[K:treble] z4 | x5[K:bass] x3 | x8 | %15
[M:8/4] x16 |] %16
V:5
 x8 | x8 | x8 | x8 | x8 | x6[K:treble] x2 | x4[K:bass] x4 | x8 | %8
 B,,2[K:treble] z2[K:bass] B,,2 F,,2 | B,,C,D,F, z F,D,F, | %10
 B,,-[B,,B,-F-][B,F][B,=E] .[B,,B,]2 [C,B,][D,B,] | [C,G,]C,=E,[C,B,] F,G, z F, | %12
 .B,2 z2 .B,2 F,,2 | x4[K:treble] x4 | x4[K:bass] x4 |[M:8/4] x16 |] %16

